X:1
T:Title
%%score { ( 1 4 ) | ( 2 3 ) }
L:1/8
M:4/4
K:G
V:1 treble nm="Grand Piano"
V:4 treble 
V:2 bass 
V:3 bass 
V:1
 z4 z2[Q:1/4=100] [B,G]A | B2 BB B2 [=FG][FG] | [Ec]2 [Ec][Ec] [CE]3 [CE] | [B,D]2 [DG]A B2 AG | %4
 [Fd]6 c2 | B2 BB B2 [=FG][FG] | [Ec]2 [Ec][Ec] [CE]3 [Ec] | B2 BB A2 GF |[M:3/4] [B,DG]6 | %9
[M:1/4] [DB]2 |[M:4/4] [Ec]2 EE E3 [Ec] | [DB]2 [B,D][B,D] [B,D]2 DD | B2 AG c2 BG | %13
 [FA]6 .[G,G]2 | [DB]2 [EB][EB] [Ec]2 [=Fd][Fd] | [Ec]2 [CE][CE] [Ec]3 [Ec] | B2 AG A2 GF | %17
[M:3/4] G2- [EG-]2 [DG]2 |] %18
V:2
 z4 z2 z C | [G,D]2 [F,A,^D][F,A,D] [E,G,E]2 [D,B,][D,B,] | [C,C]2 [C,G,][C,G,] [C,G,]3 [C,G,] | %3
 [G,,G,]2 [B,,G,][D,F,D] [G,D]2 [F,D][E,^C] | [D,D]6 [D,A,D]2 | %5
 [G,D]2 [F,A,^D][F,A,D] [E,G,E]2 [D,B,][D,B,] | [C,C]2 [C,G,][C,G,] [C,G,]3 [C,G,] | %7
 [D,G,D]2 [D,G,D][D,G,D] [D,CD]2 [D,B,D][D,A,D] |[M:3/4] G,,6 |[M:1/4] [G,,G,]2 | %10
[M:4/4] [C,G,]2 [C,G,C][C,G,C] [C,G,C]3 [C,G,] | [G,,G,]2 [G,,G,][G,,G,] [G,,G,]2 [G,B,][G,B,] | %12
 [G,DG]2 [G,CD][G,B,D] [G,EG]2 [G,DG][K:bass][G,B,] | [D,D]2 D,D, D,C,B,,[A,,F,] | %14
 [G,,G,]2 [E,G,][E,G,] [C,G,]2 [B,,G,][B,,G,] | [C,G,]2 [C,G,][C,G,] [C,G,]3 [C,G,] | %16
 [D,G,D]2 [D,F,D][D,G,D] [D,CD]2 [D,B,D][D,A,D] |[M:3/4] z2 C2 B,2 |] %18
V:3
 z4 z2 G,2 | x8 | x8 | x8 | x8 | x8 | x8 | x8 |[M:3/4] x6 |[M:1/4] x2 |[M:4/4] x8 | x8 | %12
 x7[K:bass] x | x8 | x8 | x8 | x8 |[M:3/4] G,,6 |] %18
V:4
 x8 | x8 | x8 | x8 | x8 | x8 | x8 | x8 |[M:3/4] x6 |[M:1/4] x2 |[M:4/4] x8 | x8 | x8 | %13
 z2 DD D2 D-[DA] | x8 | x8 | x8 |[M:3/4] [B,D]2 z2 z2 |] %18

